svgs/regular/paintbrush-fine.svg

<svg xmlns="http://www.w3.org/2000/svg" viewBox="0 0 576 512"><!--! Font Awesome Pro 6.1.1 by @fontawesome - https://fontawesome.com License - https://fontawesome.com/license (Commercial License) Copyright 2022 Fonticons, Inc. --><path d="M204.3 273.7L455 23.03C482.1-4.016 525.9-4.016 552.1 23.03C580 50.08 580 93.92 552.1 120.1L302.3 371.7C303.4 378.3 304 385.1 304 392C304 458.3 250.3 512 184 512H32C14.33 512 0 497.7 0 480C0 462.3 14.33 448 32 448H38.01C56.09 448 68.14 428.2 65.39 410.4C64.48 404.4 63.1 398.2 63.1 392C63.1 325.7 117.7 272 183.1 272C190.9 272 197.7 272.6 204.3 273.7H204.3zM306.2 239.7L336.3 269.8L519 87.03C527.3 78.73 527.3 65.27 519 56.97C510.7 48.67 497.3 48.67 488.1 56.97L306.2 239.7zM210.5 325C202.3 321.8 193.4 320 184 320C144.2 320 112 352.2 112 392C112 395.8 112.3 399.5 112.8 403.1C116.1 424.5 110.7 446.2 99.08 463.1L98.42 464H184C223.8 464 256 431.8 256 392C256 382.6 254.2 373.7 250.1 365.5L210.5 325z"/></svg>

<svg xmlns="http://www.w3.org/2000/svg" viewBox="0 0 576 512"><!--! Font Awesome Pro 6.5.1 by @fontawesome - https://fontawesome.com License - https://fontawesome.com/license (Commercial License) Copyright 2023 Fonticons, Inc. --><path d="M489 57L306.2 239.7l30.1 30.1L519 87c8.3-8.3 8.3-21.8 0-30.1s-21.8-8.3-30.1 0zM210.5 325c-8.2-3.3-17.2-5-26.5-5c-39.8 0-72 32.2-72 72c0 3.8 .3 7.5 .8 11.1c3.3 21.4-2.2 43.1-13.8 60l-.7 .9H184c39.8 0 72-32.2 72-72c0-9.4-1.8-18.3-5-26.5L210.5 325zm-6.2-51.3L455 23c27-27 70.9-27 97.9 0s27 70.9 0 97.9L302.3 371.7c1.1 6.6 1.7 13.4 1.7 20.3c0 66.3-53.7 120-120 120H32c-17.7 0-32-14.3-32-32s14.3-32 32-32h6c18.1 0 30.1-19.8 27.4-37.6c-.9-6-1.4-12.1-1.4-18.4c0-66.3 53.7-120 120-120c6.9 0 13.7 .6 20.3 1.7z"/></svg>
